src/assets/img/games.svg

<svg
  width="22"
  height="16"
  viewBox="0 0 22 16"
  fill="none"
  xmlns="http://www.w3.org/2000/svg">
  <path
  opacity="0.4"
  fill-rule="evenodd"
  clip-rule="evenodd"
  d="M12.9034 0.5233C12.1075 0.810958 11.7676 0.88899 10.9998 0.88899C10.232 0.88899 9.89216 0.810958 9.09627 0.5233L9.03409 0.500814C8.02943 0.137542 7.43229 0 6.44525 0C4.05055 0 1.85231 2.2826 0.942996 5.06478C0.245262 7.1996 0.0589768 8.56701 0 11.5385C0.0582506 14.4925 1.34092 15.9856 3.66063 16C5.11467 15.9917 6.11219 15.363 7.03418 14.2208C7.17642 14.0446 7.56758 13.5231 7.60944 13.4673L7.61308 13.4625C8.56208 12.235 9.54325 11.5652 11.0027 11.5556C12.4564 11.5652 13.4376 12.235 14.3866 13.4625L14.3902 13.4673C14.4321 13.5231 14.8232 14.0446 14.9655 14.2208C15.8875 15.363 16.885 15.9917 18.3278 16C20.6587 15.9856 21.9414 14.4925 21.9997 11.5727C21.9407 8.56701 21.7544 7.1996 21.0567 5.06478C20.1474 2.2826 17.9491 0 15.5544 0C14.5674 0 13.9702 0.137542 12.9656 0.500814L12.9034 0.5233ZM8.45597 2.18913C9.4419 2.54547 10.0813 2.66676 10.9998 2.66676C11.9183 2.66676 12.5578 2.54547 13.5437 2.18913L13.6061 2.16655C14.4238 1.87087 14.828 1.77778 15.5544 1.77778C16.9794 1.77778 18.6138 3.47492 19.309 5.60189C19.9465 7.55254 20.1108 8.75828 20.1667 11.5727C20.1263 13.5619 19.5656 14.2146 18.3273 14.2222C17.5536 14.2178 17.0194 13.8811 16.4091 13.125C16.3079 12.9996 16.0221 12.62 15.9044 12.4636L15.9043 12.4634L15.9041 12.4633L15.904 12.4631L15.9037 12.4627L15.9037 12.4627L15.8535 12.3961C14.5953 10.7687 13.164 9.79184 10.9941 9.77782C8.83563 9.79184 7.40436 10.7687 6.14621 12.3961L6.096 12.4626C5.97878 12.6183 5.69198 12.9994 5.59053 13.125C4.98023 13.8811 4.44608 14.2178 3.6611 14.2222C2.43407 14.2146 1.87336 13.5619 1.83299 11.5384C1.88885 8.75828 2.05311 7.55254 2.69066 5.60189C3.38582 3.47492 5.02024 1.77778 6.44525 1.77778C7.17164 1.77778 7.57582 1.87087 8.39355 2.16655L8.45597 2.18913ZM15.5832 5.77778C15.0769 5.77778 14.6665 5.37981 14.6665 4.88889C14.6665 4.39797 15.0769 4 15.5832 4C16.0894 4 16.4998 4.39797 16.4998 4.88889C16.4998 5.37981 16.0894 5.77778 15.5832 5.77778ZM14.6665 8.44444C14.6665 8.93536 15.0769 9.33333 15.5832 9.33333C16.0894 9.33333 16.4998 8.93536 16.4998 8.44444C16.4998 7.95352 16.0894 7.55556 15.5832 7.55556C15.0769 7.55556 14.6665 7.95352 14.6665 8.44444ZM17.4165 7.55556C16.9102 7.55556 16.4998 7.15759 16.4998 6.66667C16.4998 6.17575 16.9102 5.77778 17.4165 5.77778C17.9228 5.77778 18.3332 6.17575 18.3332 6.66667C18.3332 7.15759 17.9228 7.55556 17.4165 7.55556ZM12.8332 6.66667C12.8332 7.15759 13.2436 7.55556 13.7498 7.55556C14.2561 7.55556 14.6665 7.15759 14.6665 6.66667C14.6665 6.17575 14.2561 5.77778 13.7498 5.77778C13.2436 5.77778 12.8332 6.17575 12.8332 6.66667ZM6.4165 9.33333C4.89771 9.33333 3.6665 8.13943 3.6665 6.66667C3.6665 5.19391 4.89771 4 6.4165 4C7.93528 4 9.1665 5.19391 9.1665 6.66667C9.1665 8.13943 7.93528 9.33333 6.4165 9.33333ZM7.33316 6.66667C7.33316 7.15759 6.92276 7.55556 6.4165 7.55556C5.91024 7.55556 5.49983 7.15759 5.49983 6.66667C5.49983 6.17575 5.91024 5.77778 6.4165 5.77778C6.92276 5.77778 7.33316 6.17575 7.33316 6.66667Z"
  fill="white"/>
</svg>

<svg
  width="22"
  height="16"
  fill="none"
  xmlns="http://www.w3.org/2000/svg">
  <path
  opacity=".4"
  fill-rule="evenodd"
  clip-rule="evenodd"
  d="M12.903.523C12.107.811 11.768.89 11 .89S9.892.811 9.096.523L9.034.501C8.03.138 7.432 0 6.445 0 4.051 0 1.852 2.283.943 5.065.245 7.2.059 8.567 0 11.539.058 14.493 1.34 15.986 3.66 16c1.455-.008 2.452-.637 3.374-1.78.142-.175.534-.697.575-.753l.004-.005c.95-1.227 1.93-1.897 3.39-1.906 1.453.01 2.435.679 3.384 1.907l.003.004c.042.056.433.578.575.754.922 1.142 1.92 1.77 3.363 1.779 2.33-.014 3.613-1.508 3.672-4.427-.06-3.006-.246-4.373-.943-6.508C20.147 2.283 17.949 0 15.554 0c-.987 0-1.584.138-2.588.5l-.063.023ZM8.456 2.19c.986.356 1.625.478 2.544.478.918 0 1.558-.122 2.544-.478l.062-.022c.818-.296 1.222-.39 1.948-.39 1.425 0 3.06 1.698 3.755 3.825.637 1.95.802 3.156.858 5.97-.04 1.99-.601 2.643-1.84 2.65-.773-.004-1.308-.34-1.918-1.097a40.522 40.522 0 0 1-.505-.661v-.001l-.05-.067c-1.259-1.627-2.69-2.604-4.86-2.618-2.158.014-3.59.99-4.848 2.618l-.05.067c-.117.155-.404.536-.505.662-.61.756-1.145 1.093-1.93 1.097-1.227-.007-1.788-.66-1.828-2.684.056-2.78.22-3.985.858-5.936.695-2.127 2.33-3.824 3.754-3.824.727 0 1.13.093 1.949.389l.062.022Zm7.127 3.589c-.506 0-.917-.398-.917-.89 0-.49.41-.888.917-.888.506 0 .917.398.917.889 0 .49-.41.889-.917.889Zm-.917 2.666c0 .491.41.89.917.89.506 0 .917-.399.917-.89 0-.49-.41-.888-.917-.888-.506 0-.917.398-.917.888Zm2.75-.888c-.506 0-.916-.398-.916-.89 0-.49.41-.888.916-.888.507 0 .917.398.917.889 0 .49-.41.889-.916.889Zm-4.583-.89c0 .492.41.89.917.89.506 0 .916-.398.916-.89 0-.49-.41-.888-.916-.888s-.917.398-.917.889ZM6.416 9.334c-1.518 0-2.75-1.194-2.75-2.666C3.667 5.194 4.899 4 6.417 4c1.52 0 2.75 1.194 2.75 2.667 0 1.472-1.23 2.666-2.75 2.666Zm.917-2.666c0 .49-.41.889-.917.889-.506 0-.916-.398-.916-.89 0-.49.41-.888.917-.888.506 0 .916.398.916.889Z"
  fill="#fff"/>
</svg>
